X:1
T:Title
%%score { ( 1 3 ) | ( 2 4 ) }
L:1/8
Q:1/4=90
M:6/8
K:G
V:1 treble nm="Grand Piano"
V:3 treble 
V:2 treble 
V:4 treble 
V:1
 d>cB [DGB][DFA][DG] | [CEA]3 .[G,CE]3 | [B,D]>[B,G][B,G] BAG | A3 .[Fd]3 | %4
w: Chas.~H.~Gabriel * * * * *||||
 [Gd]>[EGc][DGB] [DGB][DFA][D=FG] | [CEA]3 .E3 | D>DG FBA | [B,DG]6 | [FA]>[FA][FA] [FA][GB][Ac] | %9
w: |||||
 [GB]3 .[DG]3 | [FA]>[FA][FA] [FA][Fd][DAc] | [DGB]6 | [^CGB]>[CGA][CGA] [CGA][B,GB][G^c] | %13
w: ||||
 [Fd]3 .[FA]3 | [F^c][GB][FA] [EG][^CE][CA] |[M:5/8] D-D- D3 |[M:1/8] D |[M:3/4] B6 | c6 | %19
w: ||||||
 [FA][FA] [FA][FA] [GB][Ac] | B6 | B6 | c6 | BB B[Fd] [Fc][CDA] | G6 |] %25
w: ||||||
V:2
 [G,B,G]>[G,EG][G,DG][K:bass] G,,A,,B,, | C,3 .C,3 | [G,,G,]>[G,,G,][G,,G,] [G,D][F,A,D][E,A,^C] | %3
 [D,F,D]3 .[D,C]3 | [G,B,]>G,G, G,,A,,B,, | C,3 .[C,G,C]3 | %6
 [D,G,B,]>[D,G,B,][D,B,D] [D,A,D][D,D][D,CD] | G,,6 | [D,D]>[D,D][D,D] [D,D][D,D][D,D] | %9
 [G,D]3 .[G,B,]3 | [D,D]>[D,D][D,D] [D,D][D,A,]D, | G,6 | A,,>A,,A,, A,,A,,[A,,A,] | %13
 [D,A,]3 .[D,A,]3 | [A,,A,][A,,A,][A,,A,] [A,,A,][A,,A,][A,,G,] |[M:5/8] D,2- [D,-G,] [D,A,]2 | %16
[M:1/8] z |[M:3/4] z2 G, .G,3 | z2 [D,A,] [D,A,]2 [D,D] | [D,D][D,D] [D,D][D,D] [D,D][D,D] | %20
 [G,DG]2 [G,D] .[G,D]3 | z2[K:bass] G, .G,3 | z2 [C,G,] [C,G,]2 [C,G,] | %23
 [D,G,D][D,G,D] [D,G,D][D,A,] [D,A,]D, | G,,2 G,, G,,3 |] %25
V:3
 x6 | x6 | x6 | x6 | x6 | x6 | x6 | x6 | x6 | x6 | x6 | x6 | x6 | x6 | x6 |[M:5/8] z2 B, C2 | %16
[M:1/8] x |[M:3/4] z2 D D2 D | z2 F F2 [GB] | x6 | z2 G G2 D | z2 D D2 G | z2 E E2 [Ec] | x6 | %24
 [B,D]2 [CE] [B,D]3 |] %25
V:4
 x3[K:bass] x3 | x6 | x6 | x6 | x6 | x6 | x6 | x6 | x6 | x6 | x6 | x6 | x6 | x6 | x6 | %15
[M:5/8] F,2 z z2 |[M:1/8] x |[M:3/4] x6 | x6 | x6 | x6 | x2[K:bass] x4 | x6 | x6 | x6 |] %25

